X: 1862
T: School Polka No 2
B: australian traditional tunes wiki
M:2/4
L:1/8
Q: 1/4=100
K:D
V:1 
|:"D"AA d>c|"G"BB "Em"e>d|"A7"cc Bc/B/|"D"A2-A>B|
FA d>c|"G"BB "Em"e>d|"A7"cc Bc|1"D"d4:|2"D"d2-d>e||
|:"D"ff a>f|"A7"ee "Em"g2|"A7"cc e>c|"D"ddf2|
ff a>f|"A7"ee "Em"g2|"A7"cc B>c|"D"d4:|
% abcbook-tune_id 6342d53a52f3f55895bd06b4


% abcbook-boost 0
% abcbook-tablature 
% abcbook-transpose 
% abcbook-lastupdated 1665324388801
% abcbook-soundfonts 
% abcbook-repeats 1
% NFF Book 2010

